build/img/icons/icon-vk.svg

<svg width="20" height="20" viewBox="0 0 20 20" fill="none" xmlns="http://www.w3.org/2000/svg">
<path d="M13.0696 0H6.93041C1.32808 0 0 1.32808 0 6.93041V13.0696C0 18.6719 1.32808 20 6.93041 20H13.0696C18.6719 20 20 18.6719 20 13.0696V6.93041C20 1.32808 18.6588 0 13.0696 0ZM16.1457 14.2671H14.6939C14.1439 14.2671 13.9746 13.8308 12.9852 12.8283C12.1259 11.9953 11.7453 11.8846 11.5334 11.8846C11.234 11.8846 11.149 11.969 11.149 12.3796V13.6914C11.149 14.0433 11.0384 14.2546 10.1072 14.2546C8.56723 14.2546 6.85854 13.3233 5.66045 11.5884C3.85363 9.04597 3.35927 7.14165 3.35927 6.74791C3.35927 6.53605 3.44364 6.33793 3.8505 6.33793H5.30546C5.67357 6.33793 5.81357 6.5073 5.95669 6.90103C6.67604 8.97785 7.87413 10.7972 8.36849 10.7972C8.55098 10.7972 8.63536 10.7128 8.63536 10.2472V8.10225C8.57973 7.1129 8.05912 7.02791 8.05912 6.67667C8.05912 6.5073 8.19912 6.33793 8.42349 6.33793H10.7115C11.0209 6.33793 11.1347 6.5073 11.1347 6.87166V9.76532C11.1347 10.0778 11.2746 10.1884 11.359 10.1884C11.5415 10.1884 11.6978 10.0778 12.0359 9.73907C13.0808 8.56723 13.8296 6.76041 13.8296 6.76041C13.9271 6.54855 14.0964 6.35043 14.4645 6.35043H15.9195C16.3557 6.35043 16.4532 6.5748 16.3557 6.88729C16.1732 7.73351 14.3927 10.2466 14.3927 10.2466C14.2396 10.5003 14.1808 10.6109 14.3927 10.894C14.5489 11.1059 15.057 11.5453 15.3951 11.939C16.017 12.6452 16.4951 13.2377 16.6226 13.6477C16.7657 14.0546 16.5545 14.2664 16.1439 14.2664L16.1457 14.2671Z"/>
</svg>

<svg width="20" height="20" fill="none" xmlns="http://www.w3.org/2000/svg"><path d="M13.07 0H6.93C1.328 0 0 1.328 0 6.93v6.14C0 18.672 1.328 20 6.93 20h6.14c5.602 0 6.93-1.328 6.93-6.93V6.93C20 1.328 18.659 0 13.07 0zm3.076 14.267h-1.452c-.55 0-.72-.436-1.709-1.439-.86-.833-1.24-.943-1.452-.943-.299 0-.384.084-.384.495v1.311c0 .352-.11.564-1.042.564-1.54 0-3.248-.932-4.447-2.667-1.806-2.542-2.3-4.446-2.3-4.84 0-.212.084-.41.49-.41h1.455c.369 0 .509.17.652.563.719 2.077 1.917 3.896 2.411 3.896.183 0 .267-.084.267-.55V8.102c-.055-.99-.576-1.074-.576-1.425 0-.17.14-.34.364-.34h2.288c.31 0 .424.17.424.535v2.893c0 .313.14.423.224.423.182 0 .339-.11.677-.449C13.08 8.567 13.83 6.76 13.83 6.76c.097-.211.266-.41.634-.41h1.455c.437 0 .534.225.437.537-.183.847-1.963 3.36-1.963 3.36-.153.253-.212.364 0 .647.156.212.664.651 1.002 1.045.622.706 1.1 1.299 1.228 1.709.143.407-.069.618-.48.618l.003.001z"/></svg>
